X: 4
T: The Mountain Road
R: reel
M: 4/4
L: 1/8
K: Dmaj
u(F2 A)v(F BF)AvF | (3FFu(F A)v(F EF)DE | u(F2A)v(F BF)Av(F | G2) uFv(G ED)B,D |u(F2A)v(F BF)AvF | (3FFu(F A)v(F EF)DE | uFvA u(3AAA v(BA)FB | u(ABd)e fd d2 ||u(dcd)v(B AD)FA | u(dcd)v(e fg)fe | u(dcd)v(B AD)FA | uG2 FG EDB,D |u(dcd)v(B AD)FA | u(dcd)v(e fg)fe | defd AFDv(F | G2) uFv(G ED)B,D ||


Tune 68	Setting 25940

